img/fixing-user-personas.svg

<svg width="1200" height="620" fill="none" xmlns="http://www.w3.org/2000/svg"><path fill="#F6D4D1" d="M0 0H1200V620H0z"/><path fill-rule="evenodd" clip-rule="evenodd" d="M751.872 92.181c0-4.297 3.837-7.58 8.083-6.915l235.004 36.797a7.003 7.003 0 0 1 5.921 6.915v326.617c0 4.298-3.841 7.58-8.087 6.915l-235.004-36.797a7 7 0 0 1-5.917-6.915V92.181z" fill="#89C064" stroke="#323537" stroke-width="5" stroke-linecap="round" stroke-linejoin="round"/><path d="M490 477.768s47.029 61.748 131.29 33.324c84.261-28.423 82.301-113.694 192.036-182.303 109.735-68.608 264.394-15.681 277.274-76.449 12.89-60.768-67.6-60.768-67.6-60.768" stroke="#808183" stroke-width="5" stroke-linecap="round" stroke-dasharray="10 10"/><path fill-rule="evenodd" clip-rule="evenodd" d="M566.462 144.132c0-4.298 3.837-7.581 8.083-6.916l235.004 36.797a7 7 0 0 1 5.918 6.916v274.666c0 4.297-3.837 7.58-8.083 6.915L572.38 425.713a7 7 0 0 1-5.918-6.915V144.132z" fill="#fff" stroke="#323537" stroke-width="5" stroke-linecap="round" stroke-linejoin="round"/><path fill-rule="evenodd" clip-rule="evenodd" d="M592.438 179.969c0-4.301 3.842-7.584 8.091-6.914l71.091 11.217a7 7 0 0 1 5.909 6.914v68.241c0 4.301-3.842 7.585-8.091 6.915l-71.091-11.217a7 7 0 0 1-5.909-6.915v-68.241zm111.066 17.914c0-4.301 3.843-7.584 8.091-6.914l71.092 11.217a7 7 0 0 1 5.909 6.914v68.241c0 4.301-3.843 7.585-8.091 6.915l-71.092-11.217a7.001 7.001 0 0 1-5.909-6.915v-68.241z" fill="#fff" stroke="#323537" stroke-width="5" stroke-linecap="round" stroke-linejoin="round"/><path d="M592.438 312.867l180.035 27.751m-180.034 0l128.979 20.137m-128.98-76.119L753.216 309.7m-152.717 60.923l166.6 25.528M600.5 398.374l128.98 20.138" stroke="#323537" stroke-width="5" stroke-linecap="round" stroke-linejoin="round"/><path d="M662 108.848s-19.587-12.276-47.989-12.276c-105.282 0-181.673 83.97-234.068 83.97-52.396 0-223.296-56.962-262.471 32.41-39.174 89.371 55.824 130.62 55.824 130.62" stroke="#808183" stroke-width="5" stroke-linecap="round" stroke-dasharray="10 10"/><path fill-rule="evenodd" clip-rule="evenodd" d="M385 141.577c0-4.237 3.734-7.503 7.933-6.938l234 31.482a7.001 7.001 0 0 1 6.067 6.938v277.508c0 4.237-3.734 7.503-7.933 6.938l-234-31.483a7 7 0 0 1-6.067-6.937V141.577z" fill="#309ECB" stroke="#323537" stroke-width="5" stroke-linecap="round" stroke-linejoin="round"/><path fill-rule="evenodd" clip-rule="evenodd" d="M205.496 144.132c0-4.298 3.837-7.581 8.083-6.916l235.004 36.797a7 7 0 0 1 5.917 6.916v326.616c0 4.298-3.837 7.581-8.083 6.916l-235.004-36.797a7 7 0 0 1-5.917-6.916V144.132z" fill="#fff" stroke="#323537" stroke-width="5" stroke-linecap="round" stroke-linejoin="round"/><path fill-rule="evenodd" clip-rule="evenodd" d="M231.471 179.969c0-4.301 3.843-7.584 8.091-6.914l71.092 11.217a7 7 0 0 1 5.909 6.914v68.241c0 4.301-3.843 7.585-8.091 6.915l-71.092-11.217a7.001 7.001 0 0 1-5.909-6.915v-68.241zm111.067 17.914c0-4.301 3.843-7.584 8.091-6.914l71.091 11.217a7 7 0 0 1 5.909 6.914v68.241c0 4.301-3.842 7.585-8.091 6.915l-71.091-11.217a7 7 0 0 1-5.909-6.915v-68.241zM231.471 290.14c0-4.301 3.843-7.584 8.091-6.914l71.092 11.217a7 7 0 0 1 5.909 6.914v68.241c0 4.301-3.843 7.585-8.091 6.915l-71.092-11.217a7.001 7.001 0 0 1-5.909-6.915V290.14z" fill="#fff" stroke="#323537" stroke-width="5" stroke-linecap="round" stroke-linejoin="round"/><path d="M232.367 422.605l180.036 27.751m-180.035 0l128.98 20.138m-128.981-76.119l160.778 25.064" stroke="#323537" stroke-width="5" stroke-linecap="round" stroke-linejoin="round"/><path fill-rule="evenodd" clip-rule="evenodd" d="M342.538 308.054c0-4.301 3.843-7.584 8.091-6.914l71.091 11.217a6.998 6.998 0 0 1 5.909 6.914v68.241c0 4.301-3.842 7.585-8.091 6.914l-71.091-11.216a7 7 0 0 1-5.909-6.915v-68.241z" fill="#fff" stroke="#323537" stroke-width="5" stroke-linecap="round" stroke-linejoin="round"/><circle cx="187.359" cy="251.102" r="28.849" fill="#FAFAFA" stroke="#323537" stroke-width="5"/><path d="M204.551 273.484v-4.361a8.722 8.722 0 0 0-8.722-8.723h-17.445a8.72 8.72 0 0 0-8.722 8.723v4.361m17.445-21.806a8.722 8.722 0 0 0 0-17.444 8.722 8.722 0 1 0 0 17.444z" stroke="#323537" stroke-width="5" stroke-linecap="round" stroke-linejoin="round"/><circle cx="561.088" cy="454.819" r="28.849" fill="#FAFAFA" stroke="#323537" stroke-width="5"/><path d="M578.28 477.2v-4.361a8.721 8.721 0 0 0-8.722-8.722h-17.445a8.72 8.72 0 0 0-8.722 8.722v4.361m17.445-21.805a8.722 8.722 0 1 0 0-17.444 8.722 8.722 0 0 0 0 17.444z" stroke="#323537" stroke-width="5" stroke-linecap="round" stroke-linejoin="round"/><circle cx="690.964" cy="143.116" r="28.849" fill="#FAFAFA" stroke="#323537" stroke-width="5"/><path d="M708.156 165.497v-4.361a8.72 8.72 0 0 0-8.722-8.722h-17.445a8.721 8.721 0 0 0-8.722 8.722v4.361m17.445-21.805a8.723 8.723 0 1 0-.002-17.444 8.723 8.723 0 0 0 .002 17.444z" stroke="#323537" stroke-width="5" stroke-linecap="round" stroke-linejoin="round"/><circle cx="1000.47" cy="387.275" r="28.849" fill="#FAFAFA" stroke="#323537" stroke-width="5"/><path d="M1017.67 409.656v-4.361c0-2.313-.92-4.532-2.56-6.167a8.705 8.705 0 0 0-6.17-2.555H991.5a8.72 8.72 0 0 0-8.722 8.722v4.361m17.442-21.805c4.82 0 8.72-3.905 8.72-8.722 0-4.818-3.9-8.723-8.72-8.723-4.814 0-8.72 3.905-8.72 8.723a8.722 8.722 0 0 0 8.72 8.722z" stroke="#323537" stroke-width="5" stroke-linecap="round" stroke-linejoin="round"/><path d="M896.489 81.5a3.501 3.501 0 0 0-3.501 3.438l-1.183 67.215a3.494 3.494 0 0 0 3.235 3.549c4.226.313 22.001 1.558 37.163 1.558 15.108 0 31.269-1.236 35.195-1.556a3.49 3.49 0 0 0 3.205-3.433l.985-67.22a3.501 3.501 0 0 0-3.501-3.551h-71.598z" fill="#E5E5E5" stroke="#323537" stroke-width="5" stroke-linejoin="round"/><path d="M903.209 99.82s6.007-3.195 10.138-3.041c4.504.167 6.16 4.003 10.644 4.46 6.488.662 6.286-2.838 14.091-3.75 5.085-.595 7.154 3.507 12.267 3.75 3.77.179 9.529-2.534 9.529-2.534m-56.669 16.883s4.968-3.75 9.023-3.75c4.08 0 5.775 3.316 9.833 3.75 4.781.512 6.894-3.244 13.787-3.751 6.894-.506 13.382 2.332 13.382 2.332" stroke="#323537" stroke-width="5" stroke-linecap="round"/><path d="M337.573 483.669a3.502 3.502 0 0 0-3.501 3.438l-1.183 67.215a3.496 3.496 0 0 0 3.236 3.549c4.226.312 22 1.558 37.162 1.558 15.108 0 31.269-1.236 35.195-1.556a3.49 3.49 0 0 0 3.205-3.433l.985-67.22a3.5 3.5 0 0 0-3.501-3.551h-71.598z" fill="#E5E5E5" stroke="#323537" stroke-width="5" stroke-linejoin="round"/><path d="M344.293 501.989s6.008-3.195 10.138-3.042c4.504.168 6.161 4.003 10.644 4.461 6.488.662 6.286-2.839 14.092-3.751 5.084-.594 7.153 3.508 12.266 3.751 3.77.179 9.529-2.535 9.529-2.535m-56.669 16.884s4.968-3.751 9.023-3.751c4.081 0 5.776 3.317 9.833 3.751 4.782.512 6.894-3.244 13.787-3.751 6.894-.507 13.382 2.332 13.382 2.332" stroke="#323537" stroke-width="5" stroke-linecap="round"/><path d="M1046.64 216.983l-25.56-25.044 12.75-10.095 12.74-10.094M160.291 313.8l18.565 30.594-14.852 6.623-14.852 6.623" stroke="#808183" stroke-width="5" stroke-linecap="round" stroke-linejoin="round"/></svg>

<svg width="1200" height="620" viewBox="0 0 1200 620" fill="none" xmlns="http://www.w3.org/2000/svg">
<rect width="1200" height="620" fill="#F6D4D1"/>
<path fill-rule="evenodd" clip-rule="evenodd" d="M751.872 92.1814C751.872 87.8836 755.709 84.6008 759.955 85.2656L994.959 122.063C998.366 122.596 1000.88 125.531 1000.88 128.978V455.595C1000.88 459.893 997.039 463.175 992.793 462.51L757.789 425.713C754.383 425.18 751.872 422.246 751.872 418.798V92.1814Z" fill="#89C064" stroke="#323537" stroke-width="5" stroke-linecap="round" stroke-linejoin="round"/>
<path d="M490 477.768C490 477.768 537.029 539.516 621.29 511.092C705.551 482.669 703.591 397.398 813.326 328.789C923.061 260.181 1077.72 313.108 1090.6 252.34C1103.49 191.572 1023 191.572 1023 191.572" stroke="#808183" stroke-width="5" stroke-linecap="round" stroke-dasharray="10 10"/>
<path fill-rule="evenodd" clip-rule="evenodd" d="M566.462 144.132C566.462 139.834 570.299 136.551 574.545 137.216L809.549 174.013C812.956 174.547 815.467 177.481 815.467 180.929V455.595C815.467 459.892 811.63 463.175 807.384 462.51L572.38 425.713C568.973 425.18 566.462 422.246 566.462 418.798V144.132Z" fill="white" stroke="#323537" stroke-width="5" stroke-linecap="round" stroke-linejoin="round"/>
<path fill-rule="evenodd" clip-rule="evenodd" d="M592.438 179.969C592.438 175.668 596.28 172.385 600.529 173.055L671.62 184.272C675.023 184.809 677.529 187.741 677.529 191.186V259.427C677.529 263.728 673.687 267.012 669.438 266.342L598.347 255.125C594.944 254.588 592.438 251.655 592.438 248.21V179.969Z" fill="white" stroke="#323537" stroke-width="5" stroke-linecap="round" stroke-linejoin="round"/>
<path fill-rule="evenodd" clip-rule="evenodd" d="M703.504 197.883C703.504 193.582 707.347 190.299 711.595 190.969L782.687 202.186C786.089 202.723 788.596 205.655 788.596 209.1V277.341C788.596 281.642 784.753 284.926 780.505 284.256L709.413 273.039C706.011 272.502 703.504 269.569 703.504 266.124V197.883Z" fill="white" stroke="#323537" stroke-width="5" stroke-linecap="round" stroke-linejoin="round"/>
<path d="M592.438 312.867L772.473 340.618M592.439 340.618L721.418 360.755M592.438 284.636L753.216 309.7" stroke="#323537" stroke-width="5" stroke-linecap="round" stroke-linejoin="round"/>
<path d="M600.499 370.623L767.099 396.151M600.5 398.374L729.48 418.512" stroke="#323537" stroke-width="5" stroke-linecap="round" stroke-linejoin="round"/>
<path d="M662 108.848C662 108.848 642.413 96.5719 614.011 96.572C508.729 96.5721 432.338 180.542 379.943 180.542C327.547 180.542 156.647 123.58 117.472 212.952C78.2978 302.323 173.296 343.572 173.296 343.572" stroke="#808183" stroke-width="5" stroke-linecap="round" stroke-dasharray="10 10"/>
<path fill-rule="evenodd" clip-rule="evenodd" d="M385 141.577C385 137.34 388.734 134.074 392.933 134.639L626.933 166.121C630.407 166.589 633 169.554 633 173.059V450.567C633 454.804 629.266 458.07 625.067 457.505L391.067 426.022C387.593 425.555 385 422.59 385 419.085V141.577Z" fill="#309ECB" stroke="#323537" stroke-width="5" stroke-linecap="round" stroke-linejoin="round"/>
<path fill-rule="evenodd" clip-rule="evenodd" d="M205.496 144.132C205.496 139.834 209.333 136.551 213.579 137.216L448.583 174.013C451.99 174.547 454.5 177.481 454.5 180.929V507.545C454.5 511.843 450.663 515.126 446.417 514.461L211.413 477.664C208.007 477.131 205.496 474.196 205.496 470.748V144.132Z" fill="white" stroke="#323537" stroke-width="5" stroke-linecap="round" stroke-linejoin="round"/>
<path fill-rule="evenodd" clip-rule="evenodd" d="M231.471 179.969C231.471 175.668 235.314 172.385 239.562 173.055L310.654 184.272C314.056 184.809 316.563 187.741 316.563 191.186V259.427C316.563 263.728 312.72 267.012 308.472 266.342L237.38 255.125C233.978 254.588 231.471 251.655 231.471 248.21V179.969Z" fill="white" stroke="#323537" stroke-width="5" stroke-linecap="round" stroke-linejoin="round"/>
<path fill-rule="evenodd" clip-rule="evenodd" d="M342.538 197.883C342.538 193.582 346.381 190.299 350.629 190.969L421.72 202.186C425.123 202.723 427.629 205.655 427.629 209.1V277.341C427.629 281.642 423.787 284.926 419.538 284.256L348.447 273.039C345.044 272.502 342.538 269.569 342.538 266.124V197.883Z" fill="white" stroke="#323537" stroke-width="5" stroke-linecap="round" stroke-linejoin="round"/>
<path fill-rule="evenodd" clip-rule="evenodd" d="M231.471 290.14C231.471 285.839 235.314 282.556 239.562 283.226L310.654 294.443C314.056 294.979 316.563 297.912 316.563 301.357V369.598C316.563 373.899 312.72 377.183 308.472 376.513L237.38 365.296C233.978 364.759 231.471 361.826 231.471 358.381V290.14Z" fill="white" stroke="#323537" stroke-width="5" stroke-linecap="round" stroke-linejoin="round"/>
<path d="M232.367 422.605L412.403 450.356M232.368 450.356L361.348 470.494M232.367 394.375L393.145 419.439" stroke="#323537" stroke-width="5" stroke-linecap="round" stroke-linejoin="round"/>
<path fill-rule="evenodd" clip-rule="evenodd" d="M342.538 308.054C342.538 303.753 346.381 300.47 350.629 301.14L421.72 312.357C425.123 312.893 427.629 315.826 427.629 319.271V387.512C427.629 391.813 423.787 395.097 419.538 394.426L348.447 383.21C345.044 382.673 342.538 379.74 342.538 376.295V308.054Z" fill="white" stroke="#323537" stroke-width="5" stroke-linecap="round" stroke-linejoin="round"/>
<circle cx="187.359" cy="251.102" r="28.8494" fill="#FAFAFA" stroke="#323537" stroke-width="5"/>
<path d="M204.551 273.484V269.123C204.551 266.809 203.632 264.591 201.996 262.955C200.36 261.319 198.142 260.4 195.829 260.4H178.384C176.071 260.4 173.852 261.319 172.217 262.955C170.581 264.591 169.662 266.809 169.662 269.123V273.484" stroke="#323537" stroke-width="5" stroke-linecap="round" stroke-linejoin="round"/>
<path d="M187.107 251.678C191.924 251.678 195.829 247.773 195.829 242.956C195.829 238.139 191.924 234.234 187.107 234.234C182.289 234.234 178.384 238.139 178.384 242.956C178.384 247.773 182.289 251.678 187.107 251.678Z" stroke="#323537" stroke-width="5" stroke-linecap="round" stroke-linejoin="round"/>
<circle cx="561.088" cy="454.819" r="28.8494" fill="#FAFAFA" stroke="#323537" stroke-width="5"/>
<path d="M578.28 477.2V472.839C578.28 470.526 577.361 468.308 575.725 466.672C574.089 465.036 571.871 464.117 569.558 464.117H552.113C549.8 464.117 547.581 465.036 545.946 466.672C544.31 468.308 543.391 470.526 543.391 472.839V477.2" stroke="#323537" stroke-width="5" stroke-linecap="round" stroke-linejoin="round"/>
<path d="M560.836 455.395C565.653 455.395 569.558 451.49 569.558 446.673C569.558 441.856 565.653 437.951 560.836 437.951C556.019 437.951 552.114 441.856 552.114 446.673C552.114 451.49 556.019 455.395 560.836 455.395Z" stroke="#323537" stroke-width="5" stroke-linecap="round" stroke-linejoin="round"/>
<circle cx="690.964" cy="143.116" r="28.8494" fill="#FAFAFA" stroke="#323537" stroke-width="5"/>
<path d="M708.156 165.497V161.136C708.156 158.823 707.237 156.604 705.601 154.969C703.966 153.333 701.747 152.414 699.434 152.414H681.989C679.676 152.414 677.458 153.333 675.822 154.969C674.186 156.604 673.267 158.823 673.267 161.136V165.497" stroke="#323537" stroke-width="5" stroke-linecap="round" stroke-linejoin="round"/>
<path d="M690.712 143.692C695.529 143.692 699.434 139.787 699.434 134.97C699.434 130.153 695.529 126.247 690.712 126.247C685.895 126.247 681.99 130.153 681.99 134.97C681.99 139.787 685.895 143.692 690.712 143.692Z" stroke="#323537" stroke-width="5" stroke-linecap="round" stroke-linejoin="round"/>
<circle cx="1000.47" cy="387.275" r="28.8494" fill="#FAFAFA" stroke="#323537" stroke-width="5"/>
<path d="M1017.67 409.656V405.295C1017.67 402.982 1016.75 400.763 1015.11 399.128C1013.48 397.492 1011.26 396.573 1008.94 396.573H991.5C989.187 396.573 986.968 397.492 985.333 399.128C983.697 400.763 982.778 402.982 982.778 405.295V409.656" stroke="#323537" stroke-width="5" stroke-linecap="round" stroke-linejoin="round"/>
<path d="M1000.22 387.851C1005.04 387.851 1008.94 383.946 1008.94 379.129C1008.94 374.311 1005.04 370.406 1000.22 370.406C995.406 370.406 991.5 374.311 991.5 379.129C991.5 383.946 995.406 387.851 1000.22 387.851Z" stroke="#323537" stroke-width="5" stroke-linecap="round" stroke-linejoin="round"/>
<path d="M896.489 81.5C894.586 81.5 893.021 83.0241 892.988 84.9384L891.805 152.153C891.773 153.998 893.181 155.565 895.04 155.702C899.266 156.015 917.041 157.26 932.203 157.26C947.311 157.26 963.472 156.024 967.398 155.704C969.217 155.556 970.576 154.048 970.603 152.271L971.588 85.0513C971.617 83.093 970.034 81.5 968.087 81.5H962.996H962.841H962.764H962.686H962.378H961.763H961.457H961.38H961.304H961.152H960.999H960.923H960.847H960.696H960.62H960.544H959.94H959.339H959.264H959.19H959.115H959.04H958.891H958.816H958.742H958.593H958.445H958.37H958.296H958.222H958.148H949.04H948.902H948.834H948.765H948.697H948.628H948.56H948.492H948.423H948.355H948.287H948.218H948.15H948.082H948.014H947.946H947.878H947.81H947.741H947.673H947.605H947.538H947.47H947.402H947.334H947.266H947.198H947.131H947.063H946.995H946.927H946.86H946.792H946.725H946.657H946.589H946.522H946.455H946.387H946.32H946.252H946.185H946.118H946.05H945.983H945.916H945.849H945.781H945.714H945.647H945.58H945.513H945.446H945.379H945.312H945.245H945.178H945.111H945.044H944.977H944.91H944.844H944.777H944.71H944.643H944.577H944.51H944.443H944.377H944.31H944.243H944.177H944.11H944.044H943.977H943.911H943.844H943.778H943.712H943.645H943.579H943.512H943.446H943.38H943.314H943.247H943.181H943.115H943.049H942.983H942.917H942.85H942.784H942.718H942.652H942.586H942.52H942.454H942.388H942.322H942.256H942.19H942.125H942.059H941.993H941.927H941.861H941.796H941.73H941.664H941.598H941.533H941.467H941.401H941.336H941.27H941.204H941.139H941.073H941.008H940.942H940.877H940.811H940.746H940.68H940.615H940.549H940.484H940.418H940.353H940.288H940.222H940.157H940.092H940.026H939.961H939.896H939.831H939.765H939.7H939.635H939.57H939.505H939.439H939.374H939.309H939.244H939.179H939.114H939.049H938.984H938.919H938.854H938.789H938.723H938.659H938.594H938.529H938.464H938.399H938.334H938.269H938.204H938.139H938.074H938.009H937.944H937.88H937.815H937.75H937.685H937.62H937.555H937.491H937.426H937.361H937.296H937.232H937.167H937.102H937.037H936.973H936.908H936.843H936.779H936.714H936.649H936.585H936.52H936.455H936.391H936.326H932.203H928.1H928.036H927.972H927.907H927.843H927.779H927.714H927.65H927.586H927.521H927.457H927.393H927.328H927.264H927.199H927.135H927.071H927.006H926.942H926.877H926.813H926.748H926.684H926.619H926.555H926.49H926.426H926.361H926.297H926.232H926.167H926.103H926.038H925.974H925.909H925.844H925.78H925.715H925.65H925.585H925.521H925.456H925.391H925.326H925.262H925.197H925.132H925.067H925.002H924.938H924.873H924.808H924.743H924.678H924.613H924.548H924.483H924.418H924.353H924.288H924.223H924.158H924.093H924.028H923.963H923.898H923.833H923.768H923.702H923.637H923.572H923.507H923.442H923.376H923.311H923.246H923.181H923.115H923.05H922.985H922.919H922.854H922.788H922.723H922.657H922.592H922.527H922.461H922.395H922.33H922.264H922.199H922.133H922.068H922.002H921.936H921.871H921.805H921.739H921.673H921.608H921.542H921.476H921.41H921.344H921.278H921.212H921.146H921.08H921.015H920.949H920.882H920.816H920.75H920.684H920.618H920.552H920.486H920.42H920.353H920.287H920.221H920.155H920.088H920.022H919.956H919.889H919.823H919.756H919.69H919.624H919.557H919.49H919.424H919.357H919.291H919.224H919.157H919.091H919.024H918.957H918.89H918.824H918.757H918.69H918.623H918.556H918.489H918.422H918.355H918.288H918.221H918.154H918.087H918.02H917.953H917.886H917.818H917.751H917.684H917.617H917.549H917.482H917.414H917.347H917.28H917.212H917.145H917.077H917.009H916.942H916.874H916.807H916.739H916.671H916.603H916.536H916.468H916.4H916.332H916.264H916.196H916.128H916.06H915.992H915.924H915.856H915.72H915.651H915.583H915.447H915.378H915.31H915.173H914.899H914.349H913.797H913.52H913.381H913.312H913.242H912.685H912.126H911.845H911.704H911.634H911.564H911.423H911.352H911.282H911.14H911.07H910.999H910.432H909.862H909.575H909.432H909.36H909.289H908.713H908.134H907.552H906.968H906.38H905.788H905.492H905.417H905.343H905.194H904.596H903.995H903.693H903.617H903.542H903.39H902.782H902.476H902.4H902.323H902.17H902.016H901.863H901.786H901.709H901.554H896.489Z" fill="#E5E5E5" stroke="#323537" stroke-width="5" stroke-linejoin="round"/>
<path d="M903.209 99.82C903.209 99.82 909.216 96.6251 913.347 96.7787C917.851 96.9462 919.507 100.782 923.991 101.239C930.479 101.901 930.277 98.4007 938.082 97.4883C943.167 96.8941 945.236 100.996 950.349 101.239C954.119 101.418 959.878 98.7049 959.878 98.7049" stroke="#323537" stroke-width="5" stroke-linecap="round"/>
<path d="M903.209 115.588C903.209 115.588 908.177 111.838 912.232 111.838C916.312 111.838 918.007 115.154 922.065 115.588C926.846 116.1 928.959 112.344 935.852 111.837C942.746 111.331 949.234 114.169 949.234 114.169" stroke="#323537" stroke-width="5" stroke-linecap="round"/>
<path d="M337.573 483.669C335.67 483.669 334.106 485.193 334.072 487.107L332.889 554.322C332.857 556.166 334.265 557.733 336.125 557.871C340.351 558.183 358.125 559.429 373.287 559.429C388.395 559.429 404.556 558.193 408.482 557.873C410.301 557.725 411.661 556.217 411.687 554.44L412.672 487.22C412.701 485.262 411.119 483.669 409.171 483.669H404.08H403.925H403.848H403.771H403.462H402.847H402.541H402.465H402.388H402.236H402.084H402.008H401.932H401.78H401.704H401.628H401.024H400.423H400.349H400.274H400.199H400.124H399.975H399.901H399.826H399.677H399.529H399.455H399.38H399.306H399.232H390.124H389.987H389.918H389.85H389.781H389.713H389.644H389.576H389.507H389.439H389.371H389.303H389.234H389.166H389.098H389.03H388.962H388.894H388.826H388.758H388.69H388.622H388.554H388.486H388.418H388.35H388.283H388.215H388.147H388.079H388.012H387.944H387.876H387.809H387.741H387.674H387.606H387.539H387.471H387.404H387.337H387.269H387.202H387.135H387.067H387H386.933H386.866H386.798H386.731H386.664H386.597H386.53H386.463H386.396H386.329H386.262H386.195H386.128H386.062H385.995H385.928H385.861H385.794H385.728H385.661H385.594H385.527H385.461H385.394H385.328H385.261H385.195H385.128H385.062H384.995H384.929H384.862H384.796H384.729H384.663H384.597H384.53H384.464H384.398H384.332H384.265H384.199H384.133H384.067H384.001H383.935H383.869H383.802H383.736H383.67H383.604H383.538H383.472H383.407H383.341H383.275H383.209H383.143H383.077H383.011H382.946H382.88H382.814H382.748H382.683H382.617H382.551H382.485H382.42H382.354H382.289H382.223H382.157H382.092H382.026H381.961H381.895H381.83H381.764H381.699H381.633H381.568H381.503H381.437H381.372H381.307H381.241H381.176H381.111H381.045H380.98H380.915H380.85H380.784H380.719H380.654H380.589H380.524H380.458H380.393H380.328H380.263H380.198H380.133H380.068H380.003H379.938H379.873H379.808H379.743H379.678H379.613H379.548H379.483H379.418H379.353H379.288H379.223H379.158H379.093H379.029H378.964H378.899H378.834H378.769H378.704H378.64H378.575H378.51H378.445H378.381H378.316H378.251H378.186H378.122H378.057H377.992H377.928H377.863H377.798H377.734H377.669H377.604H377.54H377.475H377.41H373.287H369.185H369.12H369.056H368.992H368.927H368.863H368.799H368.734H368.67H368.606H368.541H368.477H368.412H368.348H368.284H368.219H368.155H368.09H368.026H367.961H367.897H367.832H367.768H367.703H367.639H367.574H367.51H367.445H367.381H367.316H367.252H367.187H367.122H367.058H366.993H366.928H366.864H366.799H366.734H366.67H366.605H366.54H366.475H366.411H366.346H366.281H366.216H366.152H366.087H366.022H365.957H365.892H365.827H365.762H365.697H365.632H365.567H365.502H365.437H365.372H365.307H365.242H365.177H365.112H365.047H364.982H364.917H364.852H364.787H364.722H364.656H364.591H364.526H364.461H364.395H364.33H364.265H364.199H364.134H364.069H364.003H363.938H363.873H363.807H363.742H363.676H363.611H363.545H363.48H363.414H363.349H363.283H363.217H363.152H363.086H363.02H362.955H362.889H362.823H362.758H362.692H362.626H362.56H362.494H362.428H362.363H362.297H362.231H362.165H362.099H362.033H361.967H361.901H361.835H361.769H361.702H361.636H361.57H361.504H361.438H361.371H361.305H361.239H361.173H361.106H361.04H360.974H360.907H360.841H360.774H360.708H360.641H360.575H360.508H360.442H360.375H360.308H360.242H360.175H360.108H360.041H359.975H359.908H359.841H359.774H359.707H359.64H359.574H359.507H359.44H359.373H359.305H359.238H359.171H359.104H359.037H358.97H358.903H358.835H358.768H358.701H358.633H358.566H358.499H358.431H358.364H358.296H358.229H358.161H358.094H358.026H357.958H357.891H357.823H357.755H357.688H357.62H357.552H357.484H357.416H357.348H357.28H357.212H357.144H357.076H357.008H356.94H356.804H356.736H356.667H356.531H356.462H356.394H356.257H355.983H355.433H354.881H354.604H354.465H354.396H354.326H353.769H353.21H352.929H352.789H352.718H352.648H352.507H352.436H352.366H352.225H352.154H352.083H351.516H350.946H350.66H350.516H350.445H350.373H349.797H349.218H348.637H348.052H347.464H346.873H346.576H346.502H346.427H346.278H345.68H345.079H344.777H344.702H344.626H344.474H343.866H343.561H343.484H343.408H343.254H343.101H342.947H342.87H342.793H342.639H337.573Z" fill="#E5E5E5" stroke="#323537" stroke-width="5" stroke-linejoin="round"/>
<path d="M344.293 501.989C344.293 501.989 350.301 498.794 354.431 498.947C358.935 499.115 360.592 502.95 365.075 503.408C371.563 504.07 371.361 500.569 379.167 499.657C384.251 499.063 386.32 503.165 391.433 503.408C395.203 503.587 400.962 500.873 400.962 500.873" stroke="#323537" stroke-width="5" stroke-linecap="round"/>
<path d="M344.293 517.757C344.293 517.757 349.261 514.006 353.316 514.006C357.397 514.006 359.092 517.323 363.149 517.757C367.931 518.269 370.043 514.513 376.936 514.006C383.83 513.499 390.318 516.338 390.318 516.338" stroke="#323537" stroke-width="5" stroke-linecap="round"/>
<path d="M1046.64 216.983L1021.08 191.939L1033.83 181.844L1046.57 171.75" stroke="#808183" stroke-width="5" stroke-linecap="round" stroke-linejoin="round"/>
<path d="M160.291 313.8L178.856 344.394L164.004 351.017L149.152 357.64" stroke="#808183" stroke-width="5" stroke-linecap="round" stroke-linejoin="round"/>
</svg>
